austria/municipalities/20723.svg

<svg xmlns="http://www.w3.org/2000/svg" width="850" height="850" style="shape-rendering:geometricPrecision;text-rendering:geometricPrecision;image-rendering:optimizeQuality;fill-rule:evenodd;clip-rule:evenodd"><path style="opacity:1" fill="#c8c7c7" d="M837.5 17.5v-6h-826v4c-.951-1.419-1.284-3.085-1-5h828c.302 2.56-.032 4.893-1 7z"/><path style="opacity:1" fill="#262223" d="M837.5 17.5a103840.317 103840.317 0 0 1-31.5 454c-9.65 136.46-71.817 240.96-186.5 313.5-103.31 58.664-211.31 68.997-324 31-42.963-15.63-81.63-38.13-116-67.5-.473-1.406-1.473-2.073-3-2-2-1.333-3.667-3-5-5-.473-1.406-1.473-2.073-3-2-31.015-27.661-56.348-59.661-76-96 .215-1.679-.452-2.679-2-3-23.556-43.836-38.389-90.503-44.5-140a46084.756 46084.756 0 0 1-34.5-485v-4h826v6z"/><path style="opacity:1" fill="#126237" d="M30.5 29.5c262.833-1 525.833-1.333 789-1 .295 2.235-.039 4.235-1 6v-5h-788z"/><path style="opacity:1" fill="#00a54f" d="M30.5 29.5h788v5a85664.875 85664.875 0 0 1-32.5 456 396.805 396.805 0 0 1-6 39 232658.451 232658.451 0 0 0-355.5-441A231121.85 231121.85 0 0 0 70 528.5a44.987 44.987 0 0 1-3-10 2667.343 2667.343 0 0 1-5-34 364944.371 364944.371 0 0 0-31.5-455z"/><path style="opacity:1" fill="#fefefe" d="M423.5 103.5c1.517.011 2.684.677 3.5 2l349 435c-1.617 13.127-5.117 25.794-10.5 38-27.031-10.606-55.031-15.94-84-16-18.445-.962-36.112 2.205-53 9.5-11.67 7.834-24.337 13.501-38 17a122.457 122.457 0 0 1-37 0 1427.493 1427.493 0 0 1-57-19 276.836 276.836 0 0 0-40-7 549.375 549.375 0 0 0-88 3l-21 5a720.807 720.807 0 0 1-48 17c-18.632 4.071-36.965 3.071-55-3a411.135 411.135 0 0 0-31-16c-44.333-11.206-87.666-8.039-130 9.5-5.046-12.297-8.546-24.963-10.5-38a213421.465 213421.465 0 0 0 350.5-437z"/><path style="opacity:1" fill="#292323" d="M417.5 244.5c10.869-.347 21.535.82 32 3.5 1.394.956 2.061 2.289 2 4a218.967 218.967 0 0 0-3 11.5 98.733 98.733 0 0 1 21 6 54.982 54.982 0 0 0 11-8.5c3.333-2 6.667-2 10 0a270.61 270.61 0 0 1 21.5 16.5c.706 2.471.373 4.805-1 7a33.816 33.816 0 0 0-6 5c-.667.667-.667 1.333 0 2a168.722 168.722 0 0 1 15 16c6.509-2.139 13.009-2.305 19.5-.5a822.7 822.7 0 0 1 11.5 24.5c1.123 3.456.29 6.29-2.5 8.5-3.327.61-6.661 1.11-10 1.5a127.624 127.624 0 0 1 4.5 23 274.77 274.77 0 0 0 14.5 5.5c2.441 2.653 3.441 5.82 3 9.5a336.55 336.55 0 0 1-2.5 23c-.802 3.137-2.802 4.804-6 5a62.81 62.81 0 0 0-10.5-3 187.523 187.523 0 0 1-6 21 54.982 54.982 0 0 0 8.5 11c2.037 3.834 1.704 7.501-1 11a729.598 729.598 0 0 1-15.5 20.5c-1.667.667-3.333.667-5 0a121.924 121.924 0 0 1-8.5-8.5 210.07 210.07 0 0 1-16.5 17c2.01 6.022 2.176 12.022.5 18a300.924 300.924 0 0 1-25.5 12.5c-3.136 1.041-5.636.207-7.5-2.5-1.316-3.188-1.816-6.522-1.5-10a302.169 302.169 0 0 1-24 4 116.607 116.607 0 0 1-4.5 14c-1.743 2.371-4.077 3.705-7 4a612.635 612.635 0 0 1-27.5-3.5c-2.094-1.255-3.094-3.088-3-5.5a49.37 49.37 0 0 1 3-9 386.975 386.975 0 0 1-21-7 49.613 49.613 0 0 0-12 8.5 16.242 16.242 0 0 1-8 0L338 484.5c-1.373-2.195-1.706-4.529-1-7l7.5-7.5a102.841 102.841 0 0 1-14-15.5c-5.555-1.107-11.055-.773-16.5 1-1.982-.49-3.649-1.49-5-3a197.953 197.953 0 0 1-11.5-27.5c-.061-1.711.606-3.044 2-4a26.53 26.53 0 0 1 11-2.5 569.128 569.128 0 0 0-5-23 298.108 298.108 0 0 0-13-4.5c-3.116-2.4-4.449-5.567-4-9.5a191.392 191.392 0 0 1 3.5-26c1.126-1.444 2.626-2.11 4.5-2a43.196 43.196 0 0 1 10 3 810.315 810.315 0 0 1 7-21.5 8216.08 8216.08 0 0 0-9.5-13.5c-.706-2.471-.373-4.805 1-7a270.61 270.61 0 0 1 16.5-21.5c2-.667 4-.667 6 0l7.5 7.5a169.323 169.323 0 0 1 16-15 49.166 49.166 0 0 0-1.5-15.5c.334-2.175 1.334-4.008 3-5.5a182.793 182.793 0 0 1 26.5-11c2.034-.146 3.701.52 5 2 1.104 3.684 2.27 7.35 3.5 11a108.334 108.334 0 0 1 22-5 339.622 339.622 0 0 1 4.5-14 30.233 30.233 0 0 1 3.5-3z"/><path style="opacity:1" fill="#c7252f" d="M419.5 250.5a1582.93 1582.93 0 0 0 25 2l-4 16a124.699 124.699 0 0 1 30 8 117.85 117.85 0 0 0 15-11 636.803 636.803 0 0 1 19.5 14c.667.667.667 1.333 0 2a137.538 137.538 0 0 0-10.5 9 146.926 146.926 0 0 1 22 23.5 760.838 760.838 0 0 1 15.5-2.5l3.5 1a631.707 631.707 0 0 0 10 21.5 405.214 405.214 0 0 0-16 3.5 49.18 49.18 0 0 1 3.5 9c1.672 7.695 3.338 15.361 5 23a206.746 206.746 0 0 0 12.5 4.5c1.978.481 3.311 1.647 4 3.5a149.048 149.048 0 0 0-2 23 111.161 111.161 0 0 1-16-5 135.276 135.276 0 0 1-8 31 76.186 76.186 0 0 0 11 14.5 402.516 402.516 0 0 1-14 19.5c-.502 1.021-1.168 1.188-2 .5l-6.5-8.5c-.837-1.507-2.004-2.007-3.5-1.5a114.542 114.542 0 0 1-22.5 21.5 248.638 248.638 0 0 0 2.5 15.5 6.293 6.293 0 0 1-1 3l-21 9.5a436.323 436.323 0 0 0-5-15 106.432 106.432 0 0 1-30 7.5c-3.199 5.417-5.532 11.25-7 17.5a733.324 733.324 0 0 1-24-3l-1-2a73.03 73.03 0 0 0 4-13 92.157 92.157 0 0 1-31-9l-14 11a208.14 208.14 0 0 1-20-14c3.625-3.491 7.291-6.991 11-10.5a119.812 119.812 0 0 1-22-23 55.986 55.986 0 0 0-16 1.5l-3-1a156.276 156.276 0 0 1-9-22 118.917 118.917 0 0 0 15-3c-4.546-10.183-7.212-20.85-8-32a323.066 323.066 0 0 0-17-5c.78-8.685 1.78-17.352 3-26a136.443 136.443 0 0 0 15 5c.985-10.945 3.985-21.278 9-31a247.778 247.778 0 0 0-12-14.5 170.369 170.369 0 0 0 12.5-17.5c.837-1.507 2.004-2.007 3.5-1.5a222.1 222.1 0 0 1 9.5 10.5 119.812 119.812 0 0 1 23-22 56.076 56.076 0 0 0-2.5-18 364.63 364.63 0 0 1 23-11 135.306 135.306 0 0 1 3.5 16 130.44 130.44 0 0 1 31.5-9 81.028 81.028 0 0 0 6-16z"/><path style="opacity:1" fill="#272122" d="M380.5 367.5a352.647 352.647 0 0 1-37 1v-4c8.761-37.427 32.095-59.427 70-66a343.225 343.225 0 0 1-1 37c-16.361 5.028-27.028 15.694-32 32z"/><path style="opacity:1" fill="#282122" d="M435.5 298.5c39.572 7.239 63.238 30.572 71 70-12.338.167-24.671 0-37-.5-5.463-16.465-16.463-27.131-33-32a357.016 357.016 0 0 1-1-37.5z"/><path style="opacity:1" fill="#fcfcfc" d="M405.5 306.5c.993 8.15 1.326 16.483 1 25-15.333 5.333-25.667 15.667-31 31-8.517.326-16.85-.007-25-1 8.04-28.707 26.373-47.04 55-55z"/><path style="opacity:1" fill="#8b898a" d="M405.5 306.5c.06-.543.393-.876 1-1 1.321 8.825 1.321 17.491 0 26 .326-8.517-.007-16.85-1-25z"/><path style="opacity:1" fill="#8c8a8b" d="M443.5 306.5c-.993 8.15-1.326 16.483-1 25-1.321-8.509-1.321-17.175 0-26 .607.124.94.457 1 1z"/><path style="opacity:1" fill="#fcfcfc" d="M443.5 306.5c28.65 7.983 46.983 26.316 55 55-7.816.992-15.816 1.326-24 1-6.032-15.031-16.699-25.364-32-31-.326-8.517.007-16.85 1-25z"/><path style="opacity:1" fill="#292122" d="M419.5 360.5c16.381-.771 24.548 6.896 24.5 23-5.836 15.662-16.336 19.829-31.5 12.5-7.388-7.802-8.888-16.635-4.5-26.5 3.161-4.009 6.994-7.009 11.5-9z"/><path style="opacity:1" fill="#585556" d="M350.5 361.5c8.15.993 16.483 1.326 25 1-8.509 1.321-17.175 1.321-26 0 .124-.607.457-.94 1-1z"/><path style="opacity:1" fill="#595556" d="M498.5 361.5c.543.06.876.393 1 1-8.491 1.321-16.824 1.321-25 0 8.184.326 16.184-.008 24-1z"/><path style="opacity:1" fill="#f9f9f9" d="M421.5 366.5c13.74.808 18.574 7.808 14.5 21-5.558 6.424-12.058 7.591-19.5 3.5-6.229-6.725-6.562-13.725-1-21 2.227-.941 4.227-2.108 6-3.5z"/><path style="opacity:1" fill="#742227" d="M343.5 364.5v4a352.647 352.647 0 0 0 37-1c-12.289 1.98-24.956 2.647-38 2-.284-1.915.049-3.581 1-5z"/><path style="opacity:1" fill="#272122" d="M342.5 391.5c12.338-.167 24.671 0 37 .5 5.105 16.939 16.105 28.106 33 33.5a343.225 343.225 0 0 1 1 37c-40.001-7.334-63.668-31.001-71-71zM439.5 461.5h-3v-36c16.59-5.256 27.59-16.256 33-33a171.668 171.668 0 0 1 37 0c-7.142 37.808-29.475 60.808-67 69z"/><path style="opacity:1" fill="#f9f9f9" d="M350.5 397.5c8.36-.331 16.693.002 25 1 5.5 15.736 16.166 26.069 32 31v25c-30.667-7.333-49.667-26.333-57-57z"/><path style="opacity:1" fill="#faf9f9" d="M473.5 397.5h25c-7.333 30.667-26.333 49.667-57 57v-25c16.333-5 27-15.667 32-32z"/><path style="opacity:1" fill="#4e2124" d="M436.5 425.5v36h3c-1.068.934-2.401 1.268-4 1a342.787 342.787 0 0 1 1-37z"/><path style="opacity:1" fill="#00a54f" d="M150.5 571.5c22.044-2.065 43.378.769 64 8.5a282.463 282.463 0 0 0 35 17c17.997 3.333 35.997 3.333 54 0l48-17c49.748-11.621 99.415-11.288 149 1l41 15c20.022 4.629 40.022 4.629 60 0a282.463 282.463 0 0 0 35-17c14.83-5.429 30.164-7.929 46-7.5 27.8.619 54.466 6.285 80 17-9.537 25.076-21.704 48.743-36.5 71-.92 1.814-2.42 2.814-4.5 3-28.259-6.014-56.259-5.181-84 2.5l-26 14c-21.136 7.959-42.802 9.626-65 5l-55-19c-35.059-6.688-70.393-8.355-106-5a474.889 474.889 0 0 0-28 5 538.687 538.687 0 0 0-51 18c-20.784 4.995-41.451 4.662-62-1a597.358 597.358 0 0 1-29-15c-16.675-6.685-34.009-9.518-52-8.5a132.722 132.722 0 0 0-36.5 4l-2.5-1c-16.098-23.195-28.765-48.195-38-75 12.641-3.494 25.308-6.994 38-10.5a762.111 762.111 0 0 1 26-4.5z"/><path style="opacity:1" fill="#898787" d="M90.5 640.5c1.548.321 2.215 1.321 2 3-.901-.79-1.568-1.79-2-3z"/><path style="opacity:1" fill="#fefefe" d="M145.5 668.5a416.75 416.75 0 0 1 48 1.5 222.038 222.038 0 0 1 16 5 247.467 247.467 0 0 0 38 18c18.991 4.636 37.991 4.636 57 0a1731.899 1731.899 0 0 0 53-18 226.179 226.179 0 0 1 37-6 546.544 546.544 0 0 1 77 2 180.107 180.107 0 0 1 26 6 1804.47 1804.47 0 0 0 45 16c23.793 5.796 47.126 4.462 70-4a516.328 516.328 0 0 0 27-14 66.642 66.642 0 0 1 17-5 308.44 308.44 0 0 1 47-1c4.877.365 9.543 1.365 14 3-62.919 82.778-146.252 131.445-250 146-118.046 10.853-219.213-24.98-303.5-107.5a444.505 444.505 0 0 1-32.5-38.5 109.19 109.19 0 0 1 14-3.5z"/><path style="opacity:1" fill="#908e8e" d="M168.5 739.5c1.527-.073 2.527.594 3 2-1.527.073-2.527-.594-3-2z"/><path style="opacity:1" fill="#929091" d="M176.5 746.5c1.527-.073 2.527.594 3 2-1.527.073-2.527-.594-3-2z"/></svg>

<?xml version="1.0" encoding="UTF-8"?>
<!DOCTYPE svg PUBLIC "-//W3C//DTD SVG 1.1//EN" "http://www.w3.org/Graphics/SVG/1.1/DTD/svg11.dtd">
<svg xmlns="http://www.w3.org/2000/svg" version="1.1" width="850px" height="850px" style="shape-rendering:geometricPrecision; text-rendering:geometricPrecision; image-rendering:optimizeQuality; fill-rule:evenodd; clip-rule:evenodd" xmlns:xlink="http://www.w3.org/1999/xlink">
<g><path style="opacity:1" fill="#c8c7c7" d="M 837.5,17.5 C 837.5,15.5 837.5,13.5 837.5,11.5C 562.167,11.5 286.833,11.5 11.5,11.5C 11.5,12.8333 11.5,14.1667 11.5,15.5C 10.5489,14.0813 10.2155,12.4147 10.5,10.5C 286.5,10.5 562.5,10.5 838.5,10.5C 838.802,13.0593 838.468,15.3926 837.5,17.5 Z"/></g>
<g><path style="opacity:1" fill="#262223" d="M 837.5,17.5 C 827.332,168.851 816.832,320.184 806,471.5C 796.35,607.96 734.183,712.46 619.5,785C 516.19,843.664 408.19,853.997 295.5,816C 252.537,800.37 213.87,777.87 179.5,748.5C 179.027,747.094 178.027,746.427 176.5,746.5C 174.5,745.167 172.833,743.5 171.5,741.5C 171.027,740.094 170.027,739.427 168.5,739.5C 137.485,711.839 112.152,679.839 92.5,643.5C 92.7148,641.821 92.0481,640.821 90.5,640.5C 66.9443,596.664 52.111,549.997 46,500.5C 33.6471,338.893 22.1471,177.227 11.5,15.5C 11.5,14.1667 11.5,12.8333 11.5,11.5C 286.833,11.5 562.167,11.5 837.5,11.5C 837.5,13.5 837.5,15.5 837.5,17.5 Z"/></g>
<g><path style="opacity:1" fill="#126237" d="M 30.5,29.5 C 293.333,28.5002 556.333,28.1669 819.5,28.5C 819.795,30.7354 819.461,32.7354 818.5,34.5C 818.5,32.8333 818.5,31.1667 818.5,29.5C 555.833,29.5 293.167,29.5 30.5,29.5 Z"/></g>
<g><path style="opacity:1" fill="#00a54f" d="M 30.5,29.5 C 293.167,29.5 555.833,29.5 818.5,29.5C 818.5,31.1667 818.5,32.8333 818.5,34.5C 808.073,186.516 797.24,338.516 786,490.5C 784.647,503.598 782.647,516.598 780,529.5C 661.659,382.331 543.159,235.331 424.5,88.5C 306.174,234.998 188.007,381.664 70,528.5C 68.6289,525.34 67.6289,522.006 67,518.5C 65.2606,507.179 63.5939,495.846 62,484.5C 51.5945,332.823 41.0945,181.156 30.5,29.5 Z"/></g>
<g><path style="opacity:1" fill="#fefefe" d="M 423.5,103.5 C 425.017,103.511 426.184,104.177 427,105.5C 543.333,250.5 659.667,395.5 776,540.5C 774.383,553.627 770.883,566.294 765.5,578.5C 738.469,567.894 710.469,562.56 681.5,562.5C 663.055,561.538 645.388,564.705 628.5,572C 616.83,579.834 604.163,585.501 590.5,589C 578.179,590.874 565.846,590.874 553.5,589C 534.379,583.071 515.379,576.737 496.5,570C 483.342,566.688 470.009,564.355 456.5,563C 427.072,561.646 397.739,562.646 368.5,566C 361.5,567.667 354.5,569.333 347.5,571C 331.704,577.231 315.704,582.897 299.5,588C 280.868,592.071 262.535,591.071 244.5,585C 234.395,579.229 224.062,573.896 213.5,569C 169.167,557.794 125.834,560.961 83.5,578.5C 78.4536,566.203 74.9536,553.537 73,540.5C 190.047,394.959 306.88,249.292 423.5,103.5 Z"/></g>
<g><path style="opacity:1" fill="#292323" d="M 417.5,244.5 C 428.369,244.153 439.035,245.32 449.5,248C 450.894,248.956 451.561,250.289 451.5,252C 450.392,255.821 449.392,259.655 448.5,263.5C 455.71,264.72 462.71,266.72 469.5,269.5C 473.487,267.163 477.153,264.329 480.5,261C 483.833,259 487.167,259 490.5,261C 497.937,266.137 505.104,271.637 512,277.5C 512.706,279.971 512.373,282.305 511,284.5C 508.815,285.928 506.815,287.595 505,289.5C 504.333,290.167 504.333,290.833 505,291.5C 510.389,296.553 515.389,301.886 520,307.5C 526.509,305.361 533.009,305.195 539.5,307C 543.462,315.091 547.295,323.258 551,331.5C 552.123,334.956 551.29,337.79 548.5,340C 545.173,340.61 541.839,341.11 538.5,341.5C 540.702,349.011 542.202,356.678 543,364.5C 547.763,366.463 552.597,368.296 557.5,370C 559.941,372.653 560.941,375.82 560.5,379.5C 559.93,387.196 559.097,394.863 558,402.5C 557.198,405.637 555.198,407.304 552,407.5C 548.583,406.194 545.083,405.194 541.5,404.5C 539.915,411.592 537.915,418.592 535.5,425.5C 537.837,429.487 540.671,433.153 544,436.5C 546.037,440.334 545.704,444.001 543,447.5C 537.955,454.423 532.788,461.256 527.5,468C 525.833,468.667 524.167,468.667 522.5,468C 519.57,465.349 516.736,462.516 514,459.5C 508.792,465.506 503.292,471.172 497.5,476.5C 499.51,482.522 499.676,488.522 498,494.5C 489.731,499.051 481.231,503.218 472.5,507C 469.364,508.041 466.864,507.207 465,504.5C 463.684,501.312 463.184,497.978 463.5,494.5C 455.54,496.158 447.54,497.491 439.5,498.5C 438.302,503.238 436.802,507.905 435,512.5C 433.257,514.871 430.923,516.205 428,516.5C 418.764,515.535 409.598,514.369 400.5,513C 398.406,511.745 397.406,509.912 397.5,507.5C 398.207,504.416 399.207,501.416 400.5,498.5C 393.437,496.368 386.437,494.035 379.5,491.5C 375.108,493.716 371.108,496.549 367.5,500C 364.833,500.667 362.167,500.667 359.5,500C 352.333,494.833 345.167,489.667 338,484.5C 336.627,482.305 336.294,479.971 337,477.5C 339.522,474.978 342.022,472.478 344.5,470C 339.301,465.302 334.635,460.135 330.5,454.5C 324.945,453.393 319.445,453.727 314,455.5C 312.018,455.01 310.351,454.01 309,452.5C 304.47,443.608 300.636,434.442 297.5,425C 297.439,423.289 298.106,421.956 299.5,421C 302.987,419.378 306.654,418.545 310.5,418.5C 308.994,410.808 307.327,403.141 305.5,395.5C 301.204,393.901 296.871,392.401 292.5,391C 289.384,388.6 288.051,385.433 288.5,381.5C 289.077,372.715 290.244,364.048 292,355.5C 293.126,354.056 294.626,353.39 296.5,353.5C 299.952,354.095 303.286,355.095 306.5,356.5C 308.733,349.302 311.066,342.136 313.5,335C 310.348,330.511 307.181,326.011 304,321.5C 303.294,319.029 303.627,316.695 305,314.5C 310.137,307.063 315.637,299.896 321.5,293C 323.5,292.333 325.5,292.333 327.5,293C 330,295.5 332.5,298 335,300.5C 340.032,295.133 345.365,290.133 351,285.5C 351.326,280.28 350.826,275.114 349.5,270C 349.834,267.825 350.834,265.992 352.5,264.5C 361.077,260.126 369.91,256.459 379,253.5C 381.034,253.354 382.701,254.02 384,255.5C 385.104,259.184 386.27,262.85 387.5,266.5C 394.645,264.071 401.979,262.404 409.5,261.5C 410.889,256.832 412.389,252.165 414,247.5C 415.145,246.364 416.312,245.364 417.5,244.5 Z"/></g>
<g><path style="opacity:1" fill="#c7252f" d="M 419.5,250.5 C 427.828,251.233 436.161,251.899 444.5,252.5C 443.167,257.833 441.833,263.167 440.5,268.5C 450.825,269.915 460.825,272.581 470.5,276.5C 475.756,273.253 480.756,269.587 485.5,265.5C 492.088,270.044 498.588,274.711 505,279.5C 505.667,280.167 505.667,280.833 505,281.5C 501.328,284.342 497.828,287.342 494.5,290.5C 502.694,297.527 510.027,305.361 516.5,314C 521.579,313.126 526.745,312.293 532,311.5C 533.167,311.833 534.333,312.167 535.5,312.5C 538.705,319.742 542.038,326.909 545.5,334C 540.137,335.06 534.804,336.227 529.5,337.5C 530.961,340.382 532.127,343.382 533,346.5C 534.672,354.195 536.338,361.861 538,369.5C 542.088,371.123 546.255,372.623 550.5,374C 552.478,374.481 553.811,375.647 554.5,377.5C 553.239,385.113 552.572,392.78 552.5,400.5C 547.04,399.236 541.707,397.569 536.5,395.5C 535.06,406.152 532.393,416.486 528.5,426.5C 531.558,431.734 535.224,436.567 539.5,441C 535.027,447.639 530.361,454.139 525.5,460.5C 524.998,461.521 524.332,461.688 523.5,461C 521.333,458.167 519.167,455.333 517,452.5C 516.163,450.993 514.996,450.493 513.5,451C 506.962,459.206 499.462,466.372 491,472.5C 491.659,477.623 492.492,482.789 493.5,488C 493.415,489.107 493.081,490.107 492.5,491C 485.5,494.167 478.5,497.333 471.5,500.5C 469.939,495.516 468.273,490.516 466.5,485.5C 456.867,489.46 446.867,491.96 436.5,493C 433.301,498.417 430.968,504.25 429.5,510.5C 421.476,509.631 413.476,508.631 405.5,507.5C 405.167,506.833 404.833,506.167 404.5,505.5C 406.246,501.263 407.58,496.93 408.5,492.5C 397.641,491.325 387.308,488.325 377.5,483.5C 372.833,487.167 368.167,490.833 363.5,494.5C 356.557,490.223 349.89,485.556 343.5,480.5C 347.125,477.009 350.791,473.509 354.5,470C 346.128,463.295 338.795,455.629 332.5,447C 327.122,446.728 321.789,447.228 316.5,448.5C 315.5,448.167 314.5,447.833 313.5,447.5C 309.928,440.362 306.928,433.029 304.5,425.5C 309.559,424.823 314.559,423.823 319.5,422.5C 314.954,412.317 312.288,401.65 311.5,390.5C 305.879,388.678 300.212,387.011 294.5,385.5C 295.28,376.815 296.28,368.148 297.5,359.5C 302.417,361.461 307.417,363.128 312.5,364.5C 313.485,353.555 316.485,343.222 321.5,333.5C 317.689,328.521 313.689,323.688 309.5,319C 314.035,313.431 318.201,307.597 322,301.5C 322.837,299.993 324.004,299.493 325.5,300C 328.784,303.405 331.95,306.905 335,310.5C 341.705,302.128 349.371,294.795 358,288.5C 358.149,282.388 357.315,276.388 355.5,270.5C 363.014,266.577 370.681,262.91 378.5,259.5C 379.987,264.751 381.154,270.084 382,275.5C 392.098,271.183 402.598,268.183 413.5,266.5C 416.069,261.365 418.069,256.031 419.5,250.5 Z"/></g>
<g><path style="opacity:1" fill="#272122" d="M 380.5,367.5 C 368.247,368.479 355.913,368.813 343.5,368.5C 343.5,367.167 343.5,365.833 343.5,364.5C 352.261,327.073 375.595,305.073 413.5,298.5C 413.832,310.851 413.499,323.185 412.5,335.5C 396.139,340.528 385.472,351.194 380.5,367.5 Z"/></g>
<g><path style="opacity:1" fill="#282122" d="M 435.5,298.5 C 475.072,305.739 498.738,329.072 506.5,368.5C 494.162,368.667 481.829,368.5 469.5,368C 464.037,351.535 453.037,340.869 436.5,336C 435.511,323.58 435.178,311.08 435.5,298.5 Z"/></g>
<g><path style="opacity:1" fill="#fcfcfc" d="M 405.5,306.5 C 406.493,314.65 406.826,322.983 406.5,331.5C 391.167,336.833 380.833,347.167 375.5,362.5C 366.983,362.826 358.65,362.493 350.5,361.5C 358.54,332.793 376.873,314.46 405.5,306.5 Z"/></g>
<g><path style="opacity:1" fill="#8b898a" d="M 405.5,306.5 C 405.56,305.957 405.893,305.624 406.5,305.5C 407.821,314.325 407.821,322.991 406.5,331.5C 406.826,322.983 406.493,314.65 405.5,306.5 Z"/></g>
<g><path style="opacity:1" fill="#8c8a8b" d="M 443.5,306.5 C 442.507,314.65 442.174,322.983 442.5,331.5C 441.179,322.991 441.179,314.325 442.5,305.5C 443.107,305.624 443.44,305.957 443.5,306.5 Z"/></g>
<g><path style="opacity:1" fill="#fcfcfc" d="M 443.5,306.5 C 472.15,314.483 490.483,332.816 498.5,361.5C 490.684,362.492 482.684,362.826 474.5,362.5C 468.468,347.469 457.801,337.136 442.5,331.5C 442.174,322.983 442.507,314.65 443.5,306.5 Z"/></g>
<g><path style="opacity:1" fill="#292122" d="M 419.5,360.5 C 435.881,359.729 444.048,367.396 444,383.5C 438.164,399.162 427.664,403.329 412.5,396C 405.112,388.198 403.612,379.365 408,369.5C 411.161,365.491 414.994,362.491 419.5,360.5 Z"/></g>
<g><path style="opacity:1" fill="#585556" d="M 350.5,361.5 C 358.65,362.493 366.983,362.826 375.5,362.5C 366.991,363.821 358.325,363.821 349.5,362.5C 349.624,361.893 349.957,361.56 350.5,361.5 Z"/></g>
<g><path style="opacity:1" fill="#595556" d="M 498.5,361.5 C 499.043,361.56 499.376,361.893 499.5,362.5C 491.009,363.821 482.676,363.821 474.5,362.5C 482.684,362.826 490.684,362.492 498.5,361.5 Z"/></g>
<g><path style="opacity:1" fill="#f9f9f9" d="M 421.5,366.5 C 435.24,367.308 440.074,374.308 436,387.5C 430.442,393.924 423.942,395.091 416.5,391C 410.271,384.275 409.938,377.275 415.5,370C 417.727,369.059 419.727,367.892 421.5,366.5 Z"/></g>
<g><path style="opacity:1" fill="#742227" d="M 343.5,364.5 C 343.5,365.833 343.5,367.167 343.5,368.5C 355.913,368.813 368.247,368.479 380.5,367.5C 368.211,369.48 355.544,370.147 342.5,369.5C 342.216,367.585 342.549,365.919 343.5,364.5 Z"/></g>
<g><path style="opacity:1" fill="#272122" d="M 342.5,391.5 C 354.838,391.333 367.171,391.5 379.5,392C 384.605,408.939 395.605,420.106 412.5,425.5C 413.499,437.815 413.832,450.149 413.5,462.5C 373.499,455.166 349.832,431.499 342.5,391.5 Z"/></g>
<g><path style="opacity:1" fill="#272122" d="M 439.5,461.5 C 438.5,461.5 437.5,461.5 436.5,461.5C 436.5,449.5 436.5,437.5 436.5,425.5C 453.09,420.244 464.09,409.244 469.5,392.5C 481.833,391.167 494.167,391.167 506.5,392.5C 499.358,430.308 477.025,453.308 439.5,461.5 Z"/></g>
<g><path style="opacity:1" fill="#f9f9f9" d="M 350.5,397.5 C 358.86,397.169 367.193,397.502 375.5,398.5C 381,414.236 391.666,424.569 407.5,429.5C 407.5,437.833 407.5,446.167 407.5,454.5C 376.833,447.167 357.833,428.167 350.5,397.5 Z"/></g>
<g><path style="opacity:1" fill="#faf9f9" d="M 473.5,397.5 C 481.833,397.5 490.167,397.5 498.5,397.5C 491.167,428.167 472.167,447.167 441.5,454.5C 441.5,446.167 441.5,437.833 441.5,429.5C 457.833,424.5 468.5,413.833 473.5,397.5 Z"/></g>
<g><path style="opacity:1" fill="#4e2124" d="M 436.5,425.5 C 436.5,437.5 436.5,449.5 436.5,461.5C 437.5,461.5 438.5,461.5 439.5,461.5C 438.432,462.434 437.099,462.768 435.5,462.5C 435.171,449.989 435.505,437.655 436.5,425.5 Z"/></g>
<g><path style="opacity:1" fill="#00a54f" d="M 150.5,571.5 C 172.544,569.435 193.878,572.269 214.5,580C 225.769,586.468 237.435,592.134 249.5,597C 267.497,600.333 285.497,600.333 303.5,597C 319.5,591.333 335.5,585.667 351.5,580C 401.248,568.379 450.915,568.712 500.5,581C 514.183,586.005 527.849,591.005 541.5,596C 561.522,600.629 581.522,600.629 601.5,596C 613.565,591.134 625.231,585.468 636.5,579C 651.33,573.571 666.664,571.071 682.5,571.5C 710.3,572.119 736.966,577.785 762.5,588.5C 752.963,613.576 740.796,637.243 726,659.5C 725.08,661.314 723.58,662.314 721.5,662.5C 693.241,656.486 665.241,657.319 637.5,665C 628.833,669.667 620.167,674.333 611.5,679C 590.364,686.959 568.698,688.626 546.5,684C 528.167,677.667 509.833,671.333 491.5,665C 456.441,658.312 421.107,656.645 385.5,660C 376.105,661.389 366.772,663.056 357.5,665C 340.213,670.141 323.213,676.141 306.5,683C 285.716,687.995 265.049,687.662 244.5,682C 234.708,677.27 225.041,672.27 215.5,667C 198.825,660.315 181.491,657.482 163.5,658.5C 151.147,658.142 138.98,659.476 127,662.5C 126.167,662.167 125.333,661.833 124.5,661.5C 108.402,638.305 95.7353,613.305 86.5,586.5C 99.1412,583.006 111.808,579.506 124.5,576C 133.279,574.326 141.946,572.826 150.5,571.5 Z"/></g>
<g><path style="opacity:1" fill="#898787" d="M 90.5,640.5 C 92.0481,640.821 92.7148,641.821 92.5,643.5C 91.5987,642.71 90.9321,641.71 90.5,640.5 Z"/></g>
<g><path style="opacity:1" fill="#fefefe" d="M 145.5,668.5 C 161.549,668.078 177.549,668.578 193.5,670C 198.894,671.465 204.228,673.131 209.5,675C 221.652,682.076 234.318,688.076 247.5,693C 266.491,697.636 285.491,697.636 304.5,693C 322.262,687.286 339.929,681.286 357.5,675C 369.663,671.977 381.996,669.977 394.5,669C 420.229,667.856 445.895,668.523 471.5,671C 480.323,672.359 488.99,674.359 497.5,677C 512.435,682.534 527.435,687.867 542.5,693C 566.293,698.796 589.626,697.462 612.5,689C 621.657,684.588 630.657,679.922 639.5,675C 644.938,672.578 650.605,670.912 656.5,670C 672.134,668.471 687.801,668.138 703.5,669C 708.377,669.365 713.043,670.365 717.5,672C 654.581,754.778 571.248,803.445 467.5,818C 349.454,828.853 248.287,793.02 164,710.5C 152.415,698.253 141.582,685.42 131.5,672C 136.153,670.509 140.819,669.342 145.5,668.5 Z"/></g>
<g><path style="opacity:1" fill="#908e8e" d="M 168.5,739.5 C 170.027,739.427 171.027,740.094 171.5,741.5C 169.973,741.573 168.973,740.906 168.5,739.5 Z"/></g>
<g><path style="opacity:1" fill="#929091" d="M 176.5,746.5 C 178.027,746.427 179.027,747.094 179.5,748.5C 177.973,748.573 176.973,747.906 176.5,746.5 Z"/></g>
</svg>
